X: 351
T:Gan Ainm Waltz 2
R:waltz
S:from  Mike Rafferty
H:Mike wasn't sure where he got this but felt it came from Sean McGlynn,
H:either directly, or through Billy McComisky.
M:3/4
L:1/4
Q:3/4=40
Z:michael hogan
K:D
A/2G/2|:FD A/F/|GEB|A/F/ D (3d/e/d/ |A2 a/g/|f2 e/d/|
c2 A/ B/4d/4|1 e d B|A2 A/G/:|2 e d c|d2 f/g/||
a/f/d/ B/A/F/|D d/f/a/f/|g e/f/e/d/|ef|g e c|A2f/g/|b a/b/a/g/|f2 d/f/|
a/f/d/ B/A/F/|D d/f/a/f/|g e/f/e/d/|e2f|g e d|c2 (3A/B/c/|d/B/A/G/F/E/|
D3||
<end>
<start>
